src/assets/images/ring.svg

<svg width="1249" height="431" viewBox="0 0 1249 431" fill="none" xmlns="http://www.w3.org/2000/svg">
<path opacity="0.2" d="M587.924 350.081C415.902 303.988 264.244 247.095 158.109 192.379C105.038 165.02 63.3737 138.216 36.2378 113.597C22.6695 101.286 12.754 89.5401 6.85579 78.5628C0.959176 67.5884 -0.90491 57.4187 1.55894 48.2235C4.02282 39.0283 10.7219 31.1531 21.3158 24.5973C31.9125 18.0398 46.3725 12.8251 64.2782 8.94826C100.089 1.19487 149.572 -1.18434 209.213 1.65708C328.486 7.33951 488.273 33.8966 660.295 79.9897C832.317 126.083 983.975 182.977 1090.11 237.693C1143.18 265.052 1184.85 291.855 1211.98 316.474C1225.55 328.785 1235.46 340.531 1241.36 351.508C1247.26 362.483 1249.12 372.652 1246.66 381.847C1244.2 391.043 1237.5 398.918 1226.9 405.473C1216.31 412.031 1201.85 417.246 1183.94 421.123C1148.13 428.876 1098.65 431.256 1039.01 428.415C919.733 422.733 759.946 396.174 587.924 350.081Z" stroke="#F4F4F9"/>
</svg>

<svg xmlns="http://www.w3.org/2000/svg" width="1249" height="431" fill="none" viewBox="0 0 1249 431"><path stroke="#f4f4f9" d="M587.924 350.081c-172.022-46.093-323.68-102.986-429.815-157.702-53.071-27.359-94.735-54.163-121.871-78.782C22.67 101.286 12.754 89.54 6.856 78.563.959 67.588-.904 57.419 1.559 48.223c2.464-9.195 9.163-17.07 19.757-23.626C31.913 18.04 46.373 12.825 64.278 8.948c35.811-7.753 85.294-10.132 144.935-7.29C328.486 7.34 488.273 33.896 660.295 79.99s323.68 102.987 429.815 157.703c53.07 27.359 94.74 54.162 121.87 78.781 13.57 12.311 23.48 24.057 29.38 35.034 5.9 10.975 7.76 21.144 5.3 30.339s-9.16 17.071-19.76 23.626c-10.59 6.558-25.05 11.773-42.96 15.65-35.81 7.753-85.29 10.133-144.93 7.292-119.277-5.682-279.064-32.241-451.086-78.334Z" opacity=".2"/></svg>
